**kern
*I"Piano, MIDI
*clefG2
*k[]
*M4/4
*MM87
=1
1r
=2
1r
=3
*k[b-e-a-d-]
1r
=4
1r
=5
1r
=6
1r
=7
1r
=8
1r
=9
1r
=10
1r
=11
1r
=12
8r
8cL
8c
8cJ
8cL
8d-
8e-
8a-J
=13
8A-L
8A-J
16r
16A-LL
16A-
16A-JJ
8enL
8f
8g
8a-J
=14
8A-L
8A-J
8r
16cLL
[16B-JJ
8B-L]
16A-L
16A-JJ
16B-LL
16B-J
8cJ
=15
8r
16r
16A-
16A-LL
16B-
16c
[16B-JJ
16B-KL]
8.A-J
4r
*clefF4
=16
8A-'L
8A-J
16A-LL
16F
16F
16FJJ
8B-'
4c
16r
16A-
=17
16r
16A-KL
8A-J
8r
16cLL
[16B-JJ
8B-L]
16A-L
16A-JJ
16B-LL
16B-J
8cJ
=18
8r
8cL
8c
8cJ
8cL
8d-
8e-
8a-J
=19
8A-L
8A-J
16r
16A-LL
16A-
16A-JJ
8enL
8f
8g
8a-J
=20
8A-L
8A-J
8r
16cLL
[16B-JJ
8B-L]
16A-L
16A-JJ
16B-LL
16B-J
[8cJ
=21
8.cL]
16A-Jk
16A-LL
16B-
16c
16B-JJ
16B-LL
16A-JJ
4.A-'
=22
16A-KL
8A-
16FJk
8A-L
16fL
[16e-JJ
16e-LL]
16A-J
8A-J
8A-L
16fL
[16e-JJ
=23
16e-LL]
16A-J
8A-J
16r
16E-LL
16E-
16E-JJ
8B-L
8cJ
16cLL
16B-J
8A-J
=24
8.B-L
[16cJk
4c]
4r
8E-'L
[8A-J
=25
4A-]
4r
2r
=26
1r
=27
8f'L
8e-J
16cLL
16B-J
8A-J
8B-
4.A-'
=28
8f'L
8e-J
16cLL
16B-J
8A-J
8B-
4A-
16r
16A-
=29
8fL
16e-L
[16e-JJ
8e-L]
16A-L
16A-JJ
16B-KL
8.A-J
8r
8A-
=30
8a-L
8g
8e-
8cJ
16B-KL
8A-
[16cJk
4c]
=31
8f'L
8e-J
16cLL
16B-J
8A-J
16B-LL
16B-JJ
4.A-'
=32
8f'L
8e-J
16cLL
16B-
16A-
16A-JJ
16B-LL
16B-JJ
4.A-'
=33
16fLL
16e-J
8e-J
8r
16e-LL
[16a-JJ
8a-L]
16gL
[16gJJ
8gL]
16b-L
[16b-JJ
=34
8b-L]
8a-J
8.dd-L
[16ccJk
8cc]
8r
8e-L
8fJ
=35
8gL
8a-J
8r
8e-
8e-L
8A-
8f
[8fJ
=36
16fLL]
16e-JJ
4.A-
4r
8g'L
8a-J
=37
8r
8e-L
8f
8a-J
8r
8e-
8fL
16a-L
16a-JJ
=38
8.b-L
16a-Jk
8.b-L
16a-Jk
16b-LL
16ccJJ
4b-
16r
16a-
=39
8.b-L
16a-Jk
8.b-L
16a-Jk
16b-LL
16ccJJ
4b-
16r
16a-
=40
8.a-L
16g-XJk
8.a-L
16g-Jk
16a-LL
16b-JJ
4a-
16e-LL
[16fJJ
=41
4f]
8r
8A-
8A-L
8B-
8f
8e-J
=42
8r
8e-L
8e-
8e-J
8e-L
8fJ
16a-LL
16f
16f
[16ccJJ
=43
8ccL]
16a-L
[16a-JJ
8a-L]
16e-L
[16e-JJ
8e-L]
16d-L
[16cJJ
8cL]
16e-L
[16ccJJ
=44
8ccL]
16a-L
[16a-JJ
8a-L]
16e-L
[16enJJ
16eLL]
16e-XJ
8d-'J
8g'L
8a-J
=45
8r
8e-L
8f
8a-J
8r
8e-L
8f
8a-J
=46
8.b-L
16a-Jk
8.b-L
16a-Jk
16b-LL
16ccJJ
4b-
16r
16f
=47
8.b-L
16a-Jk
8.b-L
16a-Jk
16b-LL
16ccJJ
4b-
16r
16a-
=48
8.a-L
16g-XJk
8.a-L
16g-Jk
16a-LL
16b-JJ
4a-
16e-LL
[16fJJ
=49
4f]
8r
8A-
8A-L
8B-
8A-
8e-J
=50
8r
8e-L
8e-
8e-J
8e-L
8fJ
16a-LL
16f
16f
[16ccJJ
=51
8ccL]
16a-L
[16a-JJ
8a-L]
16e-L
[16e-JJ
8e-L]
16d-L
[16cJJ
8cL]
16e-L
[16ccJJ
=52
8ccL]
16a-L
[16a-JJ
8a-L]
16e-L
[16enJJ
16eLL]
16e-XJ
8d-'J
8g'L
8a-J
=53
8r
8e-L
8f
8a-J
8r
8e-L
8f
8a-J
=54
8.b-L
16a-Jk
8.b-L
16a-Jk
16b-LL
16ccJJ
4b-
16r
16f
=55
8.b-L
16a-Jk
8.b-L
16a-Jk
16b-LL
16ccJJ
4b-
16r
16a-
=56
8.a-L
16g-XJk
8.a-L
16g-Jk
16a-LL
16b-JJ
4a-
16e-LL
[16fJJ
=57
4f]
8r
8A-'
8A-L
8B-
8f
8e-J
=58
8r
8e-L
8e-
8e-J
8e-L
8f
8a-
8b-J
=59
8ccL
16a-L
[16a-JJ
8a-L]
16e-L
[16e-JJ
8e-L]
16d-L
[16cJJ
8cL]
16d-L
[16e-JJ
=60
4e-]
8r
16e-LL
16e-JJ
8e-L
8a-J
16gLL
16gJ
8a-J
=61
[1a-
=62
1a-]
=63
1r
=64
4r
8r
16e-LL
[16e-JJ
16e-LL]
16e-JJ
4a-
16gLL
[16a-JJ
=65
1a-_
=66
2a-]
4r
8r
8f
=67
1e-
=68
4r
8r
16e-LL
16e-JJ
8e-L
8a-J
16gLL
16gJ
[8a-J
=69
1a-]
=70
1r
=71
1r
=72
1r
=73
1cc
==
*-
